Logos/CybleLogo.svg

<svg width="41" height="40" viewBox="0 0 41 40" fill="none" xmlns="http://www.w3.org/2000/svg">
<path d="M0 20.0264C0.0227754 15.4651 1.62903 11.0499 4.54998 7.5196C6.27131 5.34998 8.43653 3.56426 10.904 2.27931C13.3714 0.994361 16.0854 0.239142 18.8683 0.0630773C23.9345 -0.34495 28.9591 1.23839 32.8525 4.46973C35.1384 6.22701 37.0022 8.46325 38.31 11.0177C39.6179 13.5722 40.3372 16.3815 40.4162 19.2436C40.5653 21.7586 40.2116 24.278 39.3756 26.6577C38.5396 29.0375 37.2375 31.231 35.5438 33.113C31.6915 37.4848 27.0536 39.7635 20.8853 39.9201C15.1685 40.0708 10.2492 38.3314 6.18 34.4176C2.11081 30.5038 0.105541 25.6738 0 20.0264ZM8.13836 25.7376C8.07675 25.8385 8.02567 25.9454 7.98592 26.0565C7.75725 27.135 7.51685 28.2193 7.31163 29.3035C7.26288 29.4795 7.27781 29.6667 7.35381 29.8329C7.42982 29.9991 7.56215 30.1339 7.72793 30.2139C8.94751 30.9135 10.1436 31.6499 11.3163 32.423C12.489 33.1883 15.6493 35.2699 16.0422 35.5598C16.435 35.8497 16.7106 36.0701 16.7106 36.0701C16.8279 36.3542 17.297 37.3457 17.297 37.3457L18.1296 37.3805L19.4723 37.4095C21.422 37.4494 23.3683 37.231 25.2594 36.76L25.4295 36.7195C25.8641 36.6026 26.2909 36.4593 26.7077 36.2904C27.3341 36.0448 27.9433 35.7581 28.5312 35.4323C29.2951 35.0056 30.0332 34.5351 30.7417 34.0233C31.3581 33.5665 31.9455 33.0728 32.5007 32.5447C33.0822 31.9816 33.6211 31.3769 34.1131 30.7357C34.619 30.106 35.0757 29.4393 35.4793 28.7411C35.9177 27.9307 36.3093 27.0964 36.652 26.2421C37.2561 24.6741 37.6503 23.0348 37.8246 21.3658C37.934 20.2781 37.9024 19.1811 37.7308 18.1014C37.2316 15.1928 36.1058 12.4244 34.4297 9.98384C32.6391 7.46417 30.2489 5.41909 27.4699 4.02906C24.7468 2.69863 21.6891 2.18661 18.6748 2.55631C17.203 2.73154 15.758 3.08197 14.3711 3.59999C12.9052 4.15076 11.513 4.87709 10.2257 5.76273C9.41319 6.3067 8.65179 6.92186 7.95074 7.60077C7.13573 8.41252 6.44385 9.34024 5.71093 10.2274C5.54529 10.4368 5.39817 10.6598 5.27117 10.8942C5.57021 10.7898 6.22104 10.4651 6.52007 10.3607C6.8191 10.2564 7.1885 10.0882 7.53444 9.99544C7.76897 9.93166 7.91556 10.0766 7.85106 10.3085L6.55525 15.0225L6.45558 15.3182C6.10377 15.1501 3.81119 13.7527 3.66461 14.031C3.51802 14.3093 3.76429 14.3151 3.90501 14.3905L4.90764 14.9703L6.2914 15.7183C5.98064 16.0836 2.59748 19.5219 2.52711 19.6727C2.45675 19.8234 2.49193 19.8872 2.52711 19.9104C2.5706 19.9291 2.6175 19.9387 2.6649 19.9387C2.71231 19.9387 2.75921 19.9291 2.80269 19.9104C2.87892 19.8814 2.93755 19.7886 3.00205 19.7249C4.02227 18.6754 6.18586 16.3677 6.25622 16.2459C6.25622 16.2459 7.97419 20.1713 8.81265 22.1601L7.1885 21.9282C5.86924 21.7484 4.54412 21.5629 3.21899 21.4005C3.12881 21.3966 3.03881 21.4117 2.95493 21.4447C2.87105 21.4776 2.79519 21.5278 2.73233 21.5919C2.51539 21.8354 2.92582 22.1717 3.11345 22.3225L5.70506 24.0619L8.13836 25.7376Z" fill="#013170"/>
<path d="M14.9635 33.5073C14.8931 33.4145 14.8227 33.3275 14.7641 33.2405C13.5602 31.3851 12.3562 29.5335 11.1523 27.6858C11.0182 27.4808 10.8449 27.3035 10.6422 27.164C10.1086 26.7813 9.5633 26.4044 9.00041 26.0623C8.87881 26.0057 8.78472 25.9039 8.73861 25.779C8.69249 25.6542 8.69808 25.5163 8.75415 25.3955C8.94764 24.6997 9.11182 23.9866 9.34049 23.2966C9.46287 22.9392 9.44188 22.549 9.28186 22.2065C8.45512 20.2641 6.69025 16.1474 6.60229 15.9908C6.69611 15.9908 15.6495 18.687 15.8078 18.7392L14.6351 19.377L9.69229 22.0963C9.3229 22.2993 9.32876 22.4037 9.69229 22.6762C11.5647 24.033 13.4292 25.3859 15.286 26.7349L15.6612 26.9958C15.3419 28.027 15.1182 29.0847 14.9928 30.1559C14.8872 31.0198 14.9693 32.7709 14.9635 33.5073Z" fill="#013170"/>
<path d="M24.0689 13.8108C24.1334 13.7412 24.1803 13.66 24.1334 13.5846C24.0814 13.5208 24.0123 13.4726 23.9341 13.4455C23.8555 13.4061 23.773 13.375 23.6878 13.3527C23.4826 13.2889 23.3888 13.4571 23.3888 13.6368C23.3888 13.8166 23.4709 13.9905 23.6351 13.9963C23.7226 13.9978 23.8092 13.9778 23.8872 13.9383C23.9539 13.905 24.0151 13.862 24.0689 13.8108V13.8108Z" fill="#013170"/>
<path d="M24.2985 14.0312C24.0757 14.1355 23.46 14.524 23.3603 14.582C22.4222 15.1618 21.4723 15.701 20.5459 16.2867C19.4436 16.9883 18.3647 17.7304 17.2624 18.4436C17.1686 18.5074 17.0103 18.4436 16.8813 18.4436C16.9205 18.3258 16.9695 18.2113 17.0279 18.1015C17.0279 18.0493 20.0886 15.9678 20.8567 15.4169C20.6808 15.3068 17.8312 13.8398 17.5497 13.7355C17.368 13.6717 17.2507 13.7702 17.239 13.9906C17.2272 14.2109 17.1803 14.5704 17.151 14.8429C17.022 16.0026 16.8872 17.2028 16.7758 18.3856C16.7704 18.4482 16.7798 18.5111 16.8032 18.5695C16.8266 18.6278 16.8634 18.68 16.9106 18.7219C17.0865 18.8321 17.3152 18.8553 17.4969 18.9481C18.8983 19.6554 20.2762 20.4034 21.6951 21.0644C21.8529 21.1559 22.0307 21.2085 22.2134 21.2175C22.3961 21.2266 22.5784 21.192 22.7447 21.1166C22.8703 21.0348 22.9767 20.9272 23.0566 20.8011C23.1365 20.6751 23.1881 20.5335 23.2079 20.386C23.63 18.4552 24.105 16.536 24.574 14.5878C24.5722 14.4807 24.5465 14.3753 24.4989 14.2791C24.4513 14.183 24.3828 14.0983 24.2985 14.0312Z" fill="#013170"/>
<path d="M26.7783 12.8193C26.749 12.7091 26.6317 12.6338 26.5555 12.5526C26.4042 12.405 26.2414 12.2693 26.0688 12.1467C25.8167 11.9554 25.5587 11.7698 25.2949 11.6017C24.7672 11.2712 24.2453 10.9407 23.7 10.645C22.8557 10.1869 21.941 9.8506 21.0791 9.48532C20.8898 9.38588 20.6729 9.3502 20.4613 9.38368C20.2497 9.41716 20.0549 9.51799 19.9064 9.67086L18.5755 10.8885C18.507 10.9564 18.4424 11.028 18.382 11.103C18.9331 11.2886 19.455 11.4567 19.9709 11.6423L23.0961 12.8019C23.2779 12.8715 24.2688 13.1498 24.3626 13.1788C24.8415 13.3411 25.3554 13.3751 25.8519 13.2774C26.1136 13.2369 26.3722 13.1787 26.6259 13.1034C26.6804 13.0805 26.7253 13.0398 26.7531 12.9881C26.7808 12.9364 26.7897 12.8768 26.7783 12.8193Z" fill="#013170"/>
<path d="M17.074 11.7003L16.3411 18.4494L7.54602 15.9968V15.875L17.074 11.7003Z" fill="#013170"/>
<path d="M16.8983 11.3289C13.5621 12.7669 10.3372 14.2281 7.07719 15.6312C6.86611 15.6312 6.84266 15.5095 6.89543 15.3123C7.34104 13.7004 7.7808 12.0769 8.23814 10.465C8.29822 10.1768 8.4224 9.90549 8.60167 9.67065C8.88437 9.37721 9.25189 9.17737 9.6539 9.09848C10.0559 9.0196 10.4728 9.06553 10.8473 9.22999C12.665 10.1113 14.6468 10.5114 16.5348 11.2014L16.8983 11.3289Z" fill="#013170"/>
<path d="M23.5178 20.8323C23.641 20.2872 23.7934 19.7132 23.9107 19.2146C24.2801 17.6606 24.6436 16.1067 25.0247 14.576C25.0599 14.4252 25.1772 14.1933 25.2768 14.1817C25.369 14.1797 25.4607 14.1962 25.5463 14.2301C25.632 14.2639 25.7098 14.3145 25.7752 14.3788C27.1942 15.7549 28.6053 17.1485 30.0086 18.5594C30.1138 18.6768 30.1758 18.826 30.1845 18.9826C30.1845 19.6494 30.1845 21.0294 30.1845 21.0294C29.6953 20.8596 29.1934 20.7277 28.6835 20.6351C27.9668 20.5161 27.2405 20.4637 26.514 20.4786C25.7863 20.494 25.06 20.5502 24.3387 20.6467C24.0602 20.6853 23.7856 20.7473 23.5178 20.8323V20.8323Z" fill="#013170"/>
<path d="M10.0325 22.3574L16.2946 18.9481C16.2946 19.1626 16.3239 19.3192 16.3356 19.4757C16.4235 21.1108 16.4822 23.3547 16.6405 24.6941C16.684 25.216 16.5476 25.7372 16.2535 26.1727C16.1382 26.3183 16.0107 26.454 15.8724 26.5785C15.7108 26.4862 15.5542 26.3856 15.4033 26.277L10.308 22.5778C10.226 22.5198 10.1497 22.4502 10.0325 22.3574Z" fill="#013170"/>
<path d="M30.595 18.5595L26.1564 14.1471C26.0391 14.0253 25.8339 13.9094 25.9864 13.718C26.0948 13.6151 26.2354 13.5517 26.3851 13.5383C27.053 13.392 27.7466 13.4059 28.4079 13.5789C29.4021 13.9037 30.3071 14.451 31.0525 15.178C31.7979 15.9051 32.3637 16.7924 32.7058 17.771C33.1513 19.1336 33.1513 20.6005 32.7058 21.9631C32.612 22.2414 32.3305 22.9314 32.3305 22.9314C32.3305 22.9314 32.0315 22.7111 31.9787 22.6589C31.5624 22.2762 30.5774 21.2963 30.5774 21.2963L30.595 18.5595Z" fill="#013170"/>
<path d="M7.646 29.6746L8.39064 26.1551C9.15875 26.6712 9.8858 27.1524 10.607 27.6453C10.6895 27.7235 10.757 27.8158 10.8064 27.9178L14.4123 33.4609C14.512 33.6232 14.6234 33.7798 14.7348 33.9363L14.6645 33.9943L7.646 29.6746Z" fill="#013170"/>
<path d="M17.0269 24.8504C16.9273 22.9718 16.8276 20.8555 16.722 18.9942C16.9155 19.1044 17.068 19.2088 17.2263 19.2899L21.1665 21.3077C21.2933 21.3728 21.4166 21.4444 21.5359 21.5223C21.5359 21.5223 21.2193 21.702 21.0434 21.818C20.5274 22.1485 19.9997 22.4732 19.4896 22.8211L19.0439 23.1284C18.6921 23.3893 18.3462 23.6618 18.0179 23.9517C17.6895 24.2416 17.3612 24.5547 17.0269 24.8504Z" fill="#013170"/>
<path d="M9.05891 22.6765L8.31427 25.3727L3.21899 21.946V21.8358L9.05891 22.6765Z" fill="#013170"/>
<path d="M17.1093 10.9349C16.9334 10.8886 11.9378 9.29405 11.7912 9.19548C11.6447 9.09691 11.7209 9.02153 11.7912 8.93456C11.867 8.84778 11.961 8.7785 12.0668 8.73162C12.3159 8.63912 12.5761 8.57871 12.8408 8.55188C13.0226 8.55188 13.2043 8.50549 13.3919 8.4881C14.0135 8.42432 14.6408 8.41852 15.2682 8.40692C15.4469 8.40706 15.621 8.46327 15.7654 8.56747C15.9097 8.67166 16.0169 8.81847 16.0715 8.98674C16.3647 9.53178 17.0566 10.7784 17.1093 10.9349Z" fill="#013170"/>
<path d="M19.5954 9.3402C18.2292 10.5984 17.6957 11.0217 17.6957 11.0217C17.3145 10.3201 16.9451 9.66491 16.5875 8.99811C16.4878 8.80677 16.6754 8.57484 16.9745 8.54585C17.1281 8.53956 17.2818 8.5532 17.4318 8.58644L18.8918 8.81836C19.185 8.87635 19.9531 9.0213 19.5954 9.3402Z" fill="#013170"/>
<path d="M21.0383 12.4947C21.0437 12.5117 21.0437 12.5299 21.0383 12.5469C21.0383 12.7904 20.5927 12.8774 20.4168 12.889C19.9946 12.9237 19.5724 12.9411 19.1503 12.9469C18.7281 12.9527 17.9248 13.1093 17.5437 12.6976C17.4833 12.6148 17.4407 12.5206 17.4185 12.4209C17.3964 12.3212 17.3951 12.218 17.4147 12.1178C17.4229 11.9233 17.4445 11.7296 17.4792 11.538C18.1242 11.2365 18.734 11.6075 19.3496 11.8337L20.3757 12.2164C20.4988 12.2396 20.9679 12.3381 21.0383 12.4947Z" fill="#013170"/>
</svg>

<svg xmlns="http://www.w3.org/2000/svg" width="41" height="40" fill="none"><g clip-path="url(#a)"><path fill="#013170" d="M18.868.063A19.46 19.46 0 0 1 32.853 4.47a19.4 19.4 0 0 1 5.457 6.548 19.2 19.2 0 0 1 2.106 8.226 19 19 0 0 1-1.04 7.414 19.1 19.1 0 0 1-3.832 6.455c-3.852 4.372-8.49 6.65-14.658 6.807-5.717.151-10.637-1.589-14.706-5.502C2.11 30.504.106 25.674 0 20.027A19.77 19.77 0 0 1 4.55 7.52a19.8 19.8 0 0 1 6.354-5.24A20 20 0 0 1 18.868.063M27.47 4.03a15.7 15.7 0 0 0-8.795-1.473A18.6 18.6 0 0 0 14.37 3.6a19.3 19.3 0 0 0-4.145 2.163A16.3 16.3 0 0 0 7.95 7.601c-.815.812-1.507 1.739-2.24 2.626q-.25.316-.44.667c.3-.104.95-.429 1.25-.533.298-.104.667-.273 1.013-.365.235-.064.381.081.317.313l-1.295 4.714-.1.295c-.352-.168-2.642-1.563-2.791-1.287-.147.278.1.284.24.36l1.002.58 1.384.747c-.311.366-3.687 3.797-3.764 3.954-.07.151-.035.215 0 .239a.35.35 0 0 0 .276 0c.076-.03.134-.122.199-.186 1.02-1.05 3.184-3.358 3.254-3.48 0 0 1.718 3.927 2.557 5.916l-1.625-.233c-1.319-.18-2.644-.365-3.97-.527a.65.65 0 0 0-.486.191c-.216.244.194.58.381.73l2.592 1.74 2.434 1.676a1.7 1.7 0 0 0-.153.318c-.228 1.079-.47 2.163-.674 3.247a.776.776 0 0 0 .416.911 68 68 0 0 1 3.588 2.21c1.173.765 4.333 2.846 4.726 3.136s.669.51.669.51c.117.284.586 1.276.586 1.276l.833.034 1.343.03c1.95.04 3.896-.179 5.787-.65l.17-.04q.652-.176 1.278-.43a15 15 0 0 0 1.823-.858 23 23 0 0 0 2.211-1.409 19 19 0 0 0 1.759-1.479 16.5 16.5 0 0 0 1.612-1.808q.76-.947 1.367-1.995.658-1.216 1.172-2.498a19 19 0 0 0 1.172-4.877c.11-1.088.078-2.185-.093-3.265a20.45 20.45 0 0 0-3.301-8.117 18.9 18.9 0 0 0-6.96-5.955M10.607 27.645q.125.118.2.273l3.605 5.543c.1.162.211.319.322.475l-.07.058-7.018-4.32.745-3.52c.768.517 1.495.998 2.216 1.491M6.603 15.991c.121.008 9.047 2.696 9.205 2.748l-1.173.637-4.943 2.72c-.369.203-.363.307 0 .58q2.809 2.035 5.594 4.059l.375.26a17.6 17.6 0 0 0-.669 3.16c-.105.865-.023 2.616-.03 3.352-.07-.092-.14-.18-.198-.267a3486 3486 0 0 0-3.612-5.555 1.9 1.9 0 0 0-.51-.521A26 26 0 0 0 9 26.062a.5.5 0 0 1-.246-.667c.193-.696.357-1.409.586-2.098a1.46 1.46 0 0 0-.059-1.091c-.826-1.941-2.587-6.05-2.678-6.215m9.692 2.957c0 .214.03.37.04.527.089 1.635.147 3.88.306 5.219a2.3 2.3 0 0 1-.387 1.478 3.3 3.3 0 0 1-.381.406 5 5 0 0 1-.47-.302l-5.094-3.7c-.082-.057-.159-.126-.276-.219zm-7.236 3.728-.745 2.697-5.095-3.427v-.11zm7.664-3.681c.193.11.345.214.504.295l3.94 2.018q.19.097.37.214s-.317.18-.493.296c-.516.33-1.044.655-1.554 1.003l-.446.307c-.352.261-.697.534-1.025.824-.329.29-.657.603-.992.898-.1-1.878-.199-3.994-.304-5.855m9.662-5.457a4.34 4.34 0 0 1 2.023.04 6.8 6.8 0 0 1 2.645 1.6 6.7 6.7 0 0 1 1.653 2.593 6.74 6.74 0 0 1 0 4.191c-.094.279-.376.97-.376.97a7 7 0 0 1-.351-.273c-.414-.38-1.39-1.35-1.402-1.362l.018-2.738-4.439-4.412c-.117-.122-.322-.238-.17-.43a.67.67 0 0 1 .399-.18m-9.146.453c.012-.22.13-.319.31-.255.282.104 3.13 1.57 3.307 1.682-.768.55-3.828 2.632-3.828 2.684q-.087.165-.146.342c.129 0 .287.064.38 0 1.103-.713 2.182-1.455 3.284-2.156.926-.586 1.876-1.126 2.814-1.705.1-.058.716-.447.939-.551a.73.73 0 0 1 .275.556c-.469 1.949-.944 3.868-1.366 5.798a1.03 1.03 0 0 1-.463.73 1.15 1.15 0 0 1-1.05-.051c-1.419-.661-2.797-1.409-4.198-2.116-.182-.093-.41-.117-.586-.227a.4.4 0 0 1-.135-.336c.112-1.183.246-2.383.375-3.543.03-.272.076-.632.088-.852m8.037.191a.7.7 0 0 1 .5.197q2.128 2.064 4.233 4.181a.7.7 0 0 1 .176.423v2.047a10 10 0 0 0-1.501-.395 12 12 0 0 0-2.17-.156q-1.093.023-2.175.168-.42.058-.821.186c.123-.545.275-1.12.392-1.619.37-1.553.733-3.107 1.114-4.637.036-.15.153-.383.252-.395m-8.935 4.269-8.795-2.453v-.122l9.528-4.174zM9.654 9.098a2 2 0 0 1 1.194.132c1.817.881 3.8 1.28 5.687 1.97l.363.129c-3.336 1.438-6.56 2.9-9.82 4.302-.212 0-.235-.122-.182-.319.445-1.612.885-3.236 1.342-4.848.06-.288.184-.559.364-.794.282-.293.65-.493 1.052-.572m14.034 4.256q.128.034.246.093a.45.45 0 0 1 .199.139c.047.075 0 .156-.065.226a.8.8 0 0 1-.181.127.54.54 0 0 1-.252.059c-.164-.006-.246-.18-.246-.36s.093-.348.299-.284m-3.227-3.97a1 1 0 0 1 .618.1c.862.366 1.777.703 2.621 1.161.545.296 1.067.626 1.595.956.264.168.521.354.773.545q.26.185.488.406c.076.081.193.157.222.267a.254.254 0 0 1-.152.284 6 6 0 0 1-.774.174 2.9 2.9 0 0 1-1.49-.099c-.095-.03-1.085-.307-1.266-.377l-3.125-1.159c-.516-.185-1.038-.353-1.59-.539q.092-.113.194-.215l1.331-1.218a1 1 0 0 1 .555-.287m-2.981 2.154c.644-.302 1.254.068 1.87.295l1.026.382c.123.024.591.122.662.279a.1.1 0 0 1 0 .053c0 .243-.445.33-.621.341a19 19 0 0 1-1.267.058c-.422.006-1.225.162-1.606-.25a.75.75 0 0 1-.129-.58 4 4 0 0 1 .065-.578m-.505-2.992q.23-.009.457.041l1.46.232c.293.058 1.061.203.704.522-1.366 1.259-1.9 1.681-1.9 1.681-.382-.701-.75-1.357-1.108-2.023-.1-.192.087-.424.387-.453m-1.706-.14c.178.001.352.057.497.161.144.104.25.25.305.419.293.545.985 1.79 1.038 1.948-.176-.046-5.171-1.64-5.318-1.74-.146-.098-.07-.173 0-.26a.8.8 0 0 1 .275-.203q.376-.139.775-.18c.182 0 .363-.046.55-.063.622-.064 1.25-.07 1.878-.081"/></g><defs><clipPath id="a"><path fill="#fff" d="M0 0h41v40H0z"/></clipPath></defs></svg>
